dist/img/magnit.svg

<svg width="164" height="31" viewBox="0 0 164 31" fill="none" xmlns="http://www.w3.org/2000/svg">
<g clip-path="url(#clip0_140_101)">
<path d="M87.5487 25.806V5.19434H100.286V9.97625H92.8513V25.806H87.5487Z" fill="#E30613"/>
<path d="M116.331 25.806V17.7262H108.431V25.806H103.129V5.19434H108.431V12.8894H116.331V5.19434H121.633V25.806H116.331Z" fill="#E30613"/>
<path d="M152.465 25.806V9.97625H146.261V5.19434H164V9.97625H157.768V25.806H152.465Z" fill="#E30613"/>
<path d="M138.443 25.806V14.0711L129.97 25.806H125.542V5.19434H130.845V16.8193L139.154 5.19434H143.746V25.806H138.443Z" fill="#E30613"/>
<path d="M57.0447 25.806V13.5489L51.742 20.0348L46.4393 13.5764V25.806H41.1367V5.19434H46.3847L51.7693 12.2848L57.154 5.19434H62.402V25.806H57.0447Z" fill="#E30613"/>
<path d="M72.4333 18.5507H77.3807L74.9207 12.0924L72.4333 18.5507ZM80.1413 25.806L79.0207 22.9204H70.766L69.6453 25.806H64.3153L72.488 5.19434H77.408L85.5807 25.806H80.1413Z" fill="#E30613"/>
<path d="M0 9.37145C0.000477336 6.89179 0.972695 4.51219 2.706 2.74823C3.55363 1.87759 4.56571 1.186 5.68284 0.714065C6.79996 0.242128 7.99961 -0.000644818 9.21133 1.28624e-06H30.4493V4.78192H9.21133C8.01001 4.78714 6.85984 5.27146 6.01333 6.12855C5.16546 7.0051 4.68584 8.17626 4.674 9.39894L4.64667 17.4238C4.54149 18.4438 4.12087 19.4049 3.444 20.172C2.74981 20.9115 1.84102 21.4117 0.847333 21.6011L0 21.7385V9.37145Z" fill="#E30613"/>
<path d="M0 31.0001V26.2181H21.2107C22.412 26.2129 23.5622 25.7286 24.4087 24.8715C25.2565 23.995 25.7362 22.8238 25.748 21.6011V13.9885C25.7474 12.8962 26.1313 11.839 26.8317 11.004C27.532 10.169 28.5038 9.61015 29.5747 9.42647L30.422 9.28906V21.6011C30.4215 24.0808 29.4493 26.4604 27.716 28.2243C26.8684 29.095 25.8563 29.7866 24.7392 30.2585C23.622 30.7304 22.4224 30.9732 21.2107 30.9726H0V31.0001Z" fill="#E30613"/>
<path d="M17.9853 21.7106V15.5271L15.2247 18.9074L12.4367 15.5271V21.7106H8.774V9.56348H12.2453L15.1973 13.466L18.1767 9.56348H21.648V21.7106H17.9853Z" fill="#E30613"/>
</g>
<defs>
<clipPath id="clip0_140_101">
<rect width="164" height="31" fill="white"/>
</clipPath>
</defs>
</svg>

<svg width="164" height="31" fill="none" xmlns="http://www.w3.org/2000/svg"><g clip-path="url(#a)" fill="#E30613"><path d="M87.549 25.806V5.194h12.737v4.782h-7.435v15.83H87.55ZM116.331 25.806v-8.08h-7.9v8.08h-5.302V5.194h5.302v7.695h7.9V5.194h5.302v20.612h-5.302ZM152.465 25.806V9.976h-6.204V5.194H164v4.782h-6.232v15.83h-5.303ZM138.443 25.806V14.071l-8.473 11.735h-4.428V5.194h5.303V16.82l8.309-11.625h4.592v20.612h-5.303ZM57.045 25.806V13.549l-5.303 6.486-5.303-6.459v12.23h-5.302V5.194h5.248l5.384 7.09 5.385-7.09h5.248v20.612h-5.357ZM72.433 18.55h4.948l-2.46-6.458-2.488 6.459Zm7.708 7.256-1.12-2.886h-8.255l-1.12 2.886h-5.33l8.172-20.612h4.92l8.173 20.612h-5.44ZM0 9.371c0-2.48.973-4.859 2.706-6.623A9.094 9.094 0 0 1 5.683.714 9.054 9.054 0 0 1 9.21 0H30.45v4.782H9.211a4.522 4.522 0 0 0-3.198 1.347 4.77 4.77 0 0 0-1.339 3.27l-.027 8.025a4.916 4.916 0 0 1-1.203 2.748 4.793 4.793 0 0 1-2.597 1.43L0 21.737V9.371ZM0 31v-4.782h21.21a4.522 4.522 0 0 0 3.199-1.346 4.77 4.77 0 0 0 1.339-3.27v-7.614a4.64 4.64 0 0 1 1.084-2.984 4.594 4.594 0 0 1 2.743-1.578l.847-.137v12.312c0 2.48-.973 4.86-2.706 6.623a9.093 9.093 0 0 1-2.977 2.035 9.056 9.056 0 0 1-3.528.714H0V31Z"/><path d="M17.985 21.71v-6.183l-2.76 3.38-2.788-3.38v6.184H8.774V9.563h3.471l2.952 3.903 2.98-3.903h3.471v12.148h-3.663Z"/></g><defs><clipPath id="a"><path fill="#fff" d="M0 0h164v31H0z"/></clipPath></defs></svg>
